svgs/sharp-regular/chair.svg

<svg xmlns="http://www.w3.org/2000/svg" viewBox="0 0 448 512"><!--! Font Awesome Pro 6.4.2 by @fontawesome - https://fontawesome.com License - https://fontawesome.com/license (Commercial License) Copyright 2023 Fonticons, Inc. --><path d="M296 48V224H248V48H200V224H152V48H112V224H64V48 0h48H336h48V48 224H336V48H296zM0 368l6.9-16L48 256H400l41.1 96 6.9 16v32H416v88 24H368V488 400H80v88 24H32V488 400H0V368zm79.7-64L59.1 352H388.9l-20.6-48H79.7z"/></svg>

<svg xmlns="http://www.w3.org/2000/svg" viewBox="0 0 448 512"><!--! Font Awesome Pro 6.6.0 by @fontawesome - https://fontawesome.com License - https://fontawesome.com/license (Commercial License) Copyright 2024 Fonticons, Inc. --><path d="M296 48l0 176-48 0 0-176-48 0 0 176-48 0 0-176-40 0 0 176-48 0L64 48 64 0l48 0L336 0l48 0 0 48 0 176-48 0 0-176-40 0zM0 368l6.9-16L48 256l352 0 41.1 96 6.9 16 0 32-32 0 0 88 0 24-48 0 0-24 0-88L80 400l0 88 0 24-48 0 0-24 0-88L0 400l0-32zm79.7-64L59.1 352l329.8 0-20.6-48L79.7 304z"/></svg>
